public/svg/jumbotron_icon_1.svg

<svg width="421" height="422" viewBox="0 0 421 422" fill="none" xmlns="http://www.w3.org/2000/svg">
<path d="M105.36 158.218C105.36 129.123 81.7718 105.542 52.6831 105.542C23.5944 105.542 0 129.123 0 158.218H105.36Z" fill="#2EB67D"/>
<path d="M157.728 158.219C157.728 143.756 146.003 132.031 131.541 132.031C117.078 132.031 105.353 143.756 105.353 158.219H157.728Z" fill="#2EB67D"/>
<path d="M344.532 183.853L193.897 422L193.393 237.43H76.1698L227.454 0V184.407L344.532 183.853Z" fill="#FFC267"/>
<path d="M301.715 315.187C301.715 282.316 328.362 255.669 361.233 255.669C394.104 255.669 420.75 282.316 420.75 315.187H301.715Z" fill="#F8F8F8"/>
<path d="M242.543 315.186C242.543 298.848 255.79 285.6 272.128 285.6C288.466 285.6 301.714 298.848 301.714 315.186H242.543Z" fill="#F8F8F8"/>
<path d="M297.873 157.244C297.873 147.564 290.025 139.716 280.345 139.716C270.666 139.716 262.818 147.564 262.818 157.244H297.873Z" fill="#1EB4D4"/>
<path d="M368.067 157.287C368.067 137.897 352.346 122.176 332.956 122.176C313.565 122.176 297.844 137.897 297.844 157.287H368.067Z" fill="#1EB4D4"/>
<path d="M122.704 367.516C122.704 357.837 130.552 349.989 140.232 349.989C149.911 349.989 157.759 357.837 157.759 367.516H122.704Z" fill="#1EB4D4"/>
<path d="M52.506 367.517C52.506 348.127 68.2273 332.406 87.6176 332.406C107.008 332.406 122.723 348.127 122.723 367.517H52.506Z" fill="#1EB4D4"/>
<path d="M122.87 290.187L131.316 298.634L139.763 290.187L131.316 281.741L122.87 290.187Z" fill="#2EB67D"/>
<path d="M17.6183 282.482V297.888H33.0249V282.482H17.6183Z" fill="#1EB4D4"/>
<path d="M17.6168 43.7567V59.1632H33.0234V43.7567H17.6168Z" fill="#2EB67D"/>
<path d="M78.0441 298.446C82.4514 298.446 86.0243 294.873 86.0243 290.466C86.0243 286.059 82.4514 282.486 78.0441 282.486C73.6367 282.486 70.0639 286.059 70.0639 290.466C70.0639 294.873 73.6367 298.446 78.0441 298.446Z" fill="#F8F8F8"/>
<path d="M297.607 78.1956L289.16 69.7493L280.714 78.1957L289.16 86.642L297.607 78.1956Z" fill="#F8F8F8"/>
<path d="M402.863 85.8996V70.493H387.457V85.8996H402.863Z" fill="#2EB67D"/>
<path d="M342.429 85.8939C346.836 85.8939 350.409 82.321 350.409 77.9137C350.409 73.5063 346.836 69.9335 342.429 69.9335C338.022 69.9335 334.449 73.5063 334.449 77.9137C334.449 82.321 338.022 85.8939 342.429 85.8939Z" fill="#1EB4D4"/>
<path d="M127.714 37.2884C129.199 33.6948 129.237 26.3314 127.261 20.6169C126.751 19.591 125.209 19.9057 125.14 21.0448L125.114 21.4225C124.768 26.7908 122.792 29.7551 119.878 31.1774C119.4 31.4103 118.638 31.3536 118.179 31.0641C114.711 28.874 110.602 27.609 106.196 27.609C101.778 27.609 97.6621 28.8803 94.1881 31.0767C93.7475 31.3536 93.1937 31.4229 92.6965 31.2404C89.7197 30.1264 87.6365 26.9041 87.2841 21.4225L87.2589 21.0385C87.1834 19.8994 85.6478 19.5847 85.138 20.6106C83.1618 26.3377 83.1996 33.7074 84.6911 37.301C85.4338 39.101 85.4778 41.1212 84.8548 42.9652C84.0681 45.319 83.659 47.849 83.6968 50.4734C83.8856 62.3493 94.0118 72.4504 105.894 72.6077C118.462 72.7776 128.702 62.6388 128.702 50.1083C128.702 47.6035 128.293 45.1994 127.537 42.9463C126.914 41.1149 126.971 39.0947 127.714 37.2884ZM105.875 67.2267C96.7244 67.0568 89.2602 59.5927 89.084 50.4356C88.9078 40.731 96.8062 32.82 106.523 32.9962C115.674 33.1662 123.138 40.6303 123.315 49.7874C123.491 59.4983 115.586 67.403 105.875 67.2267Z" fill="#1EB4D4"/>
<path d="M108.845 48.2755L104.836 42.0449C104.194 41.038 102.841 40.7484 101.841 41.3967C101.211 41.7995 100.84 42.4855 100.846 43.2659C100.846 43.6812 100.997 44.0903 101.224 44.4365L103.962 48.6972C104.163 49.0119 104.131 49.4209 103.88 49.6916L99.6505 54.3551C98.8512 55.2424 98.9142 56.6081 99.8015 57.42C100.211 57.7913 100.739 57.9927 101.293 57.9801C101.885 57.9675 102.457 57.7095 102.86 57.269L105.994 53.581C106.234 53.2977 106.68 53.3166 106.888 53.625L109.11 56.8284C109.267 57.0739 109.462 57.3067 109.701 57.4704C110.469 58.0116 111.413 57.999 112.124 57.5459C112.76 57.1494 113.138 56.4634 113.138 55.6893C113.138 55.2739 112.999 54.8648 112.773 54.5124L108.845 48.2755Z" fill="#1EB4D4"/>
<path d="M316.319 403.298L295.972 391.277V367.28L316.319 355.259L336.666 367.28V391.277L316.319 403.298ZM298.3 389.949L316.325 400.598L334.35 389.949V368.601L316.325 357.953L298.3 368.601V389.949Z" fill="#2EB67D"/>
<path d="M316.321 361.257C318.57 361.257 320.393 359.434 320.393 357.185C320.393 354.936 318.57 353.113 316.321 353.113C314.072 353.113 312.249 354.936 312.249 357.185C312.249 359.434 314.072 361.257 316.321 361.257Z" fill="#2EB67D"/>
<path d="M316.321 405.438C318.57 405.438 320.393 403.615 320.393 401.366C320.393 399.117 318.57 397.294 316.321 397.294C314.072 397.294 312.249 399.117 312.249 401.366C312.249 403.615 314.072 405.438 316.321 405.438Z" fill="#2EB67D"/>
<path d="M297.714 393.813C299.963 393.813 301.786 391.99 301.786 389.741C301.786 387.492 299.963 385.669 297.714 385.669C295.465 385.669 293.642 387.492 293.642 389.741C293.642 391.99 295.465 393.813 297.714 393.813Z" fill="#2EB67D"/>
<path d="M334.921 393.813C337.17 393.813 338.993 391.99 338.993 389.741C338.993 387.492 337.17 385.669 334.921 385.669C332.672 385.669 330.849 387.492 330.849 389.741C330.849 391.99 332.672 393.813 334.921 393.813Z" fill="#2EB67D"/>
<path d="M297.714 372.88C299.963 372.88 301.786 371.057 301.786 368.808C301.786 366.56 299.963 364.736 297.714 364.736C295.465 364.736 293.642 366.56 293.642 368.808C293.642 371.057 295.465 372.88 297.714 372.88Z" fill="#2EB67D"/>
<path d="M334.921 372.88C337.17 372.88 338.993 371.057 338.993 368.808C338.993 366.56 337.17 364.736 334.921 364.736C332.672 364.736 330.849 366.56 330.849 368.808C330.849 371.057 332.672 372.88 334.921 372.88Z" fill="#2EB67D"/>
<path d="M337.502 391.485H295.133L316.318 354.252L337.502 391.485ZM299.136 389.156H333.505L316.318 358.953L299.136 389.156Z" fill="#2EB67D"/>
</svg>

<svg xmlns="http://www.w3.org/2000/svg" xmlns:xlink="http://www.w3.org/1999/xlink" width="421" height="422" fill="none" xmlns:v="https://vecta.io/nano"><g fill="#2eb67d"><path d="M105.36 158.218c0-29.095-23.588-52.676-52.677-52.676S0 129.123 0 158.218h105.36z"/><path d="M157.728 158.219c0-14.463-11.725-26.188-26.187-26.188s-26.188 11.725-26.188 26.188h52.375z"/></g><path d="M344.532 183.853L193.897 422l-.504-184.57H76.17L227.454 0v184.407l117.078-.554z" fill="#ffc267"/><g fill="#f8f8f8"><path d="M301.715 315.187c0-32.871 26.647-59.518 59.518-59.518s59.517 26.647 59.517 59.518H301.715z"/><path d="M242.543 315.186c0-16.338 13.247-29.586 29.585-29.586s29.586 13.248 29.586 29.586h-59.171z"/></g><g fill="#1eb4d4"><path d="M297.873 157.244c0-9.68-7.848-17.528-17.528-17.528s-17.527 7.848-17.527 17.528h35.055z"/><path d="M368.067 157.287c0-19.39-15.721-35.111-35.111-35.111s-35.112 15.721-35.112 35.111h70.223zM122.704 367.516c0-9.679 7.848-17.527 17.528-17.527a17.53 17.53 0 0 1 17.527 17.527h-35.055z"/><path d="M52.506 367.517c0-19.39 15.721-35.111 35.112-35.111s35.105 15.721 35.105 35.111H52.506z"/></g><path d="M122.87 290.187l8.446 8.447 8.447-8.447-8.447-8.446-8.446 8.446z" fill="#2eb67d"/><path d="M17.618 282.482v15.406h15.407v-15.406H17.618z" fill="#1eb4d4"/><path d="M17.617 43.757v15.407h15.407V43.757H17.617z" fill="#2eb67d"/><path d="M78.044 298.446a7.98 7.98 0 1 0 0-15.96 7.98 7.98 0 1 0 0 15.96zm219.563-220.25l-8.447-8.446-8.446 8.446 8.446 8.446 8.447-8.446z" fill="#f8f8f8"/><path d="M402.863 85.9V70.493h-15.406V85.9h15.406z" fill="#2eb67d"/><path d="M342.429 85.894a7.98 7.98 0 1 0 0-15.96 7.98 7.98 0 1 0 0 15.96zM127.714 37.288c1.485-3.594 1.523-10.957-.453-16.671-.51-1.026-2.052-.711-2.121.428l-.026.378c-.346 5.368-2.322 8.333-5.236 9.755-.478.233-1.24.176-1.699-.113-3.468-2.19-7.577-3.455-11.983-3.455a22.39 22.39 0 0 0-12.008 3.468 1.71 1.71 0 0 1-1.492.164c-2.977-1.114-5.06-4.336-5.412-9.818l-.025-.384c-.075-1.139-1.611-1.454-2.121-.428-1.976 5.727-1.938 13.097-.447 16.69.743 1.8.787 3.82.164 5.664-.787 2.354-1.196 4.884-1.158 7.508.189 11.876 10.315 21.977 22.197 22.134 12.568.17 22.808-9.969 22.808-22.499 0-2.505-.409-4.909-1.165-7.162-.623-1.831-.566-3.852.177-5.658zm-21.839 29.938c-9.151-.17-16.615-7.634-16.791-16.791-.176-9.705 7.722-17.616 17.439-17.439 9.151.17 16.615 7.634 16.792 16.791.176 9.711-7.729 17.616-17.44 17.439zm2.97-18.95l-4.009-6.231c-.642-1.007-1.995-1.297-2.995-.648a2.16 2.16 0 0 0-.995 1.869c0 .415.151.824.378 1.171l2.738 4.261c.201.315.169.724-.082.994l-4.23 4.663c-.799.887-.736 2.253.151 3.065a2.14 2.14 0 0 0 1.492.56 2.2 2.2 0 0 0 1.567-.711l3.134-3.688c.24-.283.686-.264.894.044l2.222 3.203c.157.245.352.478.591.642a2.16 2.16 0 0 0 2.423.076c.636-.397 1.014-1.083 1.014-1.857 0-.415-.139-.825-.365-1.177l-3.928-6.237z" fill="#1eb4d4"/><g fill="#2eb67d"><path d="M316.319 403.298l-20.347-12.021V367.28l20.347-12.021 20.347 12.021v23.997l-20.347 12.021zM298.3 389.949l18.025 10.649 18.025-10.649v-21.348l-18.025-10.648-18.025 10.648v21.348z"/><use xlink:href="#B"/><use xlink:href="#B" y="44.181"/><use xlink:href="#B" x="-18.607" y="32.556"/><use xlink:href="#B" x="18.6" y="32.556"/><use xlink:href="#C"/><use xlink:href="#C" x="37.207"/><path d="M337.502 391.485h-42.369l21.185-37.233 21.184 37.233zm-38.366-2.329h34.369l-17.187-30.203-17.182 30.203z"/></g><defs ><path id="B" d="M316.321 361.257c2.249 0 4.072-1.823 4.072-4.072s-1.823-4.072-4.072-4.072-4.072 1.823-4.072 4.072 1.823 4.072 4.072 4.072z"/><path id="C" d="M297.714 372.88c2.249 0 4.072-1.823 4.072-4.072s-1.823-4.072-4.072-4.072-4.072 1.824-4.072 4.072 1.823 4.072 4.072 4.072z"/></defs></svg>
